docs/media/cursor/cur13.svg

<?xml version="1.0" encoding="UTF-8"?>
<!DOCTYPE svg  PUBLIC '-//W3C//DTD SVG 1.1//EN'  'http://www.w3.org/Graphics/SVG/1.1/DTD/svg11.dtd'>
<svg version="1.1" viewBox="0 0 640 640" xmlns="http://www.w3.org/2000/svg" xmlns:xlink="http://www.w3.org/1999/xlink">
<defs>
<path id="a" d="m420 322.9c0 69.99-57.15 126.81-127.54 126.81s-127.53-56.82-127.53-126.81 57.14-126.81 127.53-126.81 127.54 56.82 127.54 126.81z"/>
<path id="b" d="m479.73 318.56c0.81 102.93-80.99 187.14-182.53 187.93-101.55 0.8-184.65-82.12-185.46-185.05s80.98-187.14 182.53-187.93c101.55-0.8 184.65 82.12 185.46 185.05z"/>
<path id="c" d="m450.07 320c0 86-69.9 155.83-156 155.83s-156-69.83-156-155.83 69.9-155.83 156-155.83 156 69.83 156 155.83z"/>
</defs>
<use fill="#bce213" xlink:href="#a"/>
<use fill-opacity="0" stroke="#c3e212" stroke-opacity=".44" stroke-width="9" xlink:href="#a"/>
<use fill-opacity="0" stroke="#f1f0e3" stroke-width="3" xlink:href="#b"/>
<use fill-opacity="0" stroke="#f1f0e3" stroke-width="6" xlink:href="#c"/>
</svg>

<?xml version="1.0" encoding="UTF-8" standalone="no"?>
<!DOCTYPE svg PUBLIC "-//W3C//DTD SVG 1.1//EN" "http://www.w3.org/Graphics/SVG/1.1/DTD/svg11.dtd">
<svg version="1.1" xmlns="http://www.w3.org/2000/svg" xmlns:xlink="http://www.w3.org/1999/xlink" preserveAspectRatio="xMidYMid meet" viewBox="0 0 640 640" width="640" height="640"><defs><path d="M420 322.9C420 392.89 362.85 449.71 292.46 449.71C222.07 449.71 164.93 392.89 164.93 322.9C164.93 252.91 222.07 196.09 292.46 196.09C362.85 196.09 420 252.91 420 322.9Z" id="bcN3Jgjak"></path><path d="M479.73 318.56C480.54 421.49 398.74 505.7 297.2 506.49C195.65 507.29 112.55 424.37 111.74 321.44C110.93 218.51 192.72 134.3 294.27 133.51C395.82 132.71 478.92 215.63 479.73 318.56Z" id="f21ivTlvlM"></path><path d="M450.07 320C450.07 406 380.17 475.83 294.07 475.83C207.97 475.83 138.07 406 138.07 320C138.07 234 207.97 164.17 294.07 164.17C380.17 164.17 450.07 234 450.07 320Z" id="d263xB4fOF"></path></defs><g><g><g><use xlink:href="#bcN3Jgjak" opacity="1" fill="#bce213" fill-opacity="1"></use><g><use xlink:href="#bcN3Jgjak" opacity="1" fill-opacity="0" stroke="#c3e212" stroke-width="9" stroke-opacity="0.44"></use></g></g><g><g><use xlink:href="#f21ivTlvlM" opacity="1" fill-opacity="0" stroke="#f1f0e3" stroke-width="3" stroke-opacity="1"></use></g></g><g><g><use xlink:href="#d263xB4fOF" opacity="1" fill-opacity="0" stroke="#f1f0e3" stroke-width="6" stroke-opacity="1"></use></g></g></g></g></svg>
